papirus/32x32/apps/gpodder.svg

<svg height="32" width="32" xmlns="http://www.w3.org/2000/svg"><g transform="translate(.1499887 -.149755)"><path d="m15.46818 3.8147873c-.289862.00468-.583263.023504-.877735.056055-4.6153689.5101819-7.9773465 4.3173836-7.6603549 8.5681677l-1.0800788.120313.6179687 5.590432 3.602541-.397852-.6179692-5.5918-1.3343756.147657c-.2473074-3.6425174 2.6398108-6.894687 6.5980508-7.33223 3.955592-.4372506 7.499471 2.0993244 8.058206 5.703909l-1.174414.129883.617968 5.590432 3.478127-.38418-.617969-5.590432-1.116992.123047c-.589343-3.9389832-4.246426-6.8019729-8.492973-6.7334017z" fill="#4d4d4d" overflow="visible"/><path d="m15.46818 3.8147873c-.289862.00468-.583263.023504-.877735.056055-4.531675.5009303-7.8454763 4.1814954-7.6644569 8.3384807.1959658-3.8630223 3.3888619-7.165857 7.6644569-7.6384808.294472-.032551.587873-.051372.877735-.056055 4.246547-.068571 7.90363 2.7944185 8.492973 6.7334018l1.116992-.123047.541407 4.898636.07656-.0082-.617969-5.590433-1.116992.123047c-.589341-3.9389862-4.246424-6.8019759-8.492971-6.7334047zm7.159964 6.8810577l-1.028125.113477.07656.691797 1.097852-.12168c-.03605-.232591-.08607-.460409-.146289-.683594zm-13.1755922 1.464258l-1.3343756.147657c-.00168-.02432.0000056-.04817-.0014-.07246-.013531.255111-.016282.512492.0014.772461l1.3343756-.147656.5414068 4.900002.076562-.0082-.61797-5.5918zm-2.5375012.280274l-1.0650393.118946.076562.691797 1.0035163-.11211c-.017486-.234476-.019537-.467335-.015043-.698633z" fill="#fff" opacity=".2" overflow="visible"/></g><path d="m15.086509 5.0009705c-.489691.018861-.919956.2790461-1.25776.6645459-.337804.3854997-.604643.8989211-.829394 1.5015294-.449499 1.2052136-.725844 2.7767658-.878869 4.4024502-.153026 1.625684-.179205 3.302071-.109371 4.703552.06983 1.401481.206215 2.492239.494772 3.101213.252378.532625.545588 1.141413.671847 1.69121.126258.549798.09985.987963-.223949 1.342356-.323798.354392-1.038139.673135-2.411359.746785-1.3732203.07365-3.379891-.09261-6.2250033-.6221-.458255-.08528-.8405622-.0929-1.1731286.01724-.3325663.110151-.5929171.355141-.751271.664547-.316708.61881-.3451778 1.470019-.3919109 2.646244-.01511.380334.1245603.742903.3697764 1.039929.2452161.297026.5885553.54051 1.014281.753417.8514515.425815 2.0438416.732784 3.5245939.951057 2.9615054.436545 7.0732685.505345 11.7443065.234779l.0039-.0013.0052 0c1.719101-.141573 4.438521-.240881 6.783574-.836983 1.172527-.298052 2.256731-.71792 3.084508-1.359601.827777-.641679 1.394651-1.532555 1.450461-2.668794.05188-1.056373-.0027-1.763879-.214835-2.27219-.212165-.508311-.666837-.779467-1.134068-.789231-.934461-.01952-2.035537.591784-3.464701.92718-1.640026.384883-2.797076.509365-3.584487.449664-.787411-.05971-1.181025-.282521-1.42442-.595571-.243395-.313052-.352765-.776137-.403629-1.364906-.05086-.588769-.04493-1.285933-.122391-2.020167-.148523-1.407668-.428833-4.702838-1.063744-7.645614-.317455-1.4713889-.720886-2.8558507-1.261666-3.897078-.27039-.520614-.574879-.9584631-.940066-1.2747076-.365186-.3162445-.804807-.5078052-1.281197-.4894559z" fill="#7f5785" overflow="visible"/><path d="m11.992188 13.820312c-.022826.862573-.018046 1.699014.019531 2.453126.06983 1.401481.205583 2.492588.49414 3.101562.248313.524045.532646 1.121286.66211 1.664062.10112-.279549.095694-.598475.009765-.972656-.126259-.549797-.419497-1.158781-.671875-1.691406-.288557-.608974-.42431-1.700082-.49414-3.101562-.022376-.449057-.017884-.958333-.019531-1.453126zm17.982421 9.19336c-.067933 1.115558-.626145 1.995415-1.443359 2.628906-.827777.641681-1.911457 1.061323-3.083984 1.359375-2.345053.596102-5.064103.694365-6.783204.835938l-.005859 0-.003906.001953c-4.671038.270566-8.7826353.20217-11.7441408-.234375-1.4807523-.218273-2.6739391-.525357-3.5253906-.951172-.4257257-.212907-.7684558-.45688-1.0136718-.753906-.1638934-.198522-.275181-.427109-.3300782-.669922-.0107381.21529-.0294475.38886-.0390625.630859-.01511.380334.1239246.742037.3691407 1.039063.245216.297026.5879461.540999 1.0136718.753906.8514515.425815 2.0446383.732899 3.5253906.951172 2.9615055.436545 7.0731028.504941 11.7441408.234375l.003906-.001953.005859 0c1.719101-.141573 4.438151-.239836 6.783204-.835938 1.172527-.298052 2.256207-.717694 3.083984-1.359375.827777-.641679 1.395362-1.533683 1.451172-2.669922.018539-.377498.00317-.663757-.007813-.958984z" opacity=".3" overflow="visible"/><path d="m15.085938 5c-.489692.018861-.920009.2805158-1.257813.6660156-.337804.3854997-.603374.8993449-.828125 1.5019532-.449499 1.2052136-.725881 2.7766593-.878906 4.4023432-.103994 1.10479-.1324 2.200572-.128906 3.25.019594-.740477.05822-1.499067.128906-2.25.153025-1.625685.429407-3.1971296.878906-4.4023432.224751-.6026083.490321-1.1164535.828125-1.5019532.337804-.3854998.768121-.6452015 1.257813-.6640625.47639-.0183493.916064.1720368 1.28125.4882813.365187.3162445.671016.7547766.941406 1.2753906.54078 1.0412273.944263 2.425095 1.261718 3.896484.634912 2.942776.913978 6.238817 1.0625 7.646485.077461.734234.072187 1.430762.123047 2.019531.050864.588769.160902 1.052182.404297 1.365234.243395.31305.636417.535994 1.423828.595703.787411.059702 1.943959-.064335 3.583985-.449218 1.429164-.335396 2.530383-.947255 3.464843-.927735.467231.009764.922601.280752 1.134766.789063.136328.326664.187281.781578.207031 1.3125.000878-.014419.007101-.026517.007813-.041016.05188-1.056373-.002709-1.763173-.214844-2.271484-.212165-.508311-.667535-.779299-1.134766-.789063-.93446-.01952-2.035679.590386-3.464843.925782-1.640026.384883-2.796574.510872-3.583985.451171-.787411-.059709-1.180433-.282653-1.423828-.595703-.243395-.313052-.353433-.776465-.404297-1.365234-.05086-.588769-.045586-1.285297-.123047-2.019531-.148522-1.407668-.427588-4.703709-1.0625-7.646485-.317455-1.4713885-.720938-2.8552567-1.261718-3.896484-.27039-.520614-.576219-.9591461-.941406-1.2753906-.365186-.3162445-.80486-.5085837-1.28125-.4902344zm-1.917969 17.037109c-.047455.13139-.111287.257753-.214844.371094-.323798.354392-1.036936.672444-2.410156.746094-1.3732205.07365-3.3794973-.091604-6.2246096-.621094-.458255-.08528-.8412617-.094515-1.1738282.015625-.3325662.110151-.5935992.35661-.7519531.666016-.316708.61881-.3438919 1.470259-.390625 2.646484-.005011.126133.0118229.248658.0390625.369141.0414541-.831117.1000147-1.524131.3515625-2.015625.1583539-.309406.4193869-.553912.7519531-.664063.3325665-.11014.7155732-.102858 1.1738282-.017578 2.8451123.52949 4.8513891.694744 6.2246096.621094 1.37322-.07365 2.086358-.391702 2.410156-.746094.323799-.354393.350867-.791999.224609-1.341797-.002163-.00942-.007505-.019842-.009765-.029297z" fill="#fff" opacity=".2" overflow="visible"/><path d="m13.987376 15.15024a2.9911104 6.0006018 2.5215963 1 1 -5.9747014-.30167 2.9911104 6.0006018 2.5215963 1 1  5.9747014.30167z" fill="#fff"/><path d="m12.993028 16.04782a1.4913024 2.0080428 6.8892366 0 1 -2.986252-.09601 1.4913024 2.0080428 6.8892366 0 1  2.986252.09601z" fill="#4d4d4d" overflow="visible"/><path d="m22.93707 14.682978a6.0260012 3.4507342 83.211508 1 1 -6.873974.633527 6.0260012 3.4507342 83.211508 1 1  6.873974-.633527z" fill="#fff"/><path d="m20.947159 16.136879a1.4387671 2.0444924 16.980205 0 1 -2.894868-.270974 1.4387671 2.0444924 16.980205 1 1  2.894868.270974z" fill="#4d4d4d" overflow="visible"/></svg>

<?xml version="1.0" encoding="UTF-8" standalone="no"?>
<!-- Created with Inkscape (http://www.inkscape.org/) -->

<svg
   xmlns:dc="http://purl.org/dc/elements/1.1/"
   xmlns:cc="http://creativecommons.org/ns#"
   xmlns:rdf="http://www.w3.org/1999/02/22-rdf-syntax-ns#"
   xmlns:svg="http://www.w3.org/2000/svg"
   xmlns="http://www.w3.org/2000/svg"
   xmlns:sodipodi="http://sodipodi.sourceforge.net/DTD/sodipodi-0.dtd"
   xmlns:inkscape="http://www.inkscape.org/namespaces/inkscape"
   version="1.0"
   width="32"
   height="32"
   id="svg4380"
   inkscape:version="0.91 r13725"
   sodipodi:docname="gpodder.svg">
  <sodipodi:namedview
     pagecolor="#7f7f7f"
     bordercolor="#666666"
     borderopacity="1"
     objecttolerance="10"
     gridtolerance="10"
     guidetolerance="10"
     inkscape:pageopacity="0"
     inkscape:pageshadow="2"
     inkscape:window-width="1600"
     inkscape:window-height="847"
     id="namedview274"
     showgrid="false"
     inkscape:zoom="1"
     inkscape:cx="15.746374"
     inkscape:cy="15.527348"
     inkscape:window-x="0"
     inkscape:window-y="0"
     inkscape:window-maximized="1"
     inkscape:current-layer="svg4380" />
  <metadata
     id="metadata281">
    <rdf:RDF>
      <cc:Work
         rdf:about="">
        <dc:format>image/svg+xml</dc:format>
        <dc:type
           rdf:resource="http://purl.org/dc/dcmitype/StillImage" />
        <dc:title></dc:title>
      </cc:Work>
    </rdf:RDF>
  </metadata>
  <defs
     id="defs4382" />
  <g
     id="g4671"
     transform="translate(0.1499887,-0.149755)">
    <path
       id="path4113"
       d="m 15.46818,3.8147873 c -0.289862,0.00468 -0.583263,0.023504 -0.877735,0.056055 C 9.9750761,4.3810242 6.6130985,8.1882259 6.9300901,12.43901 L 5.8500113,12.559323 6.46798,18.149755 10.070521,17.751903 9.4525518,12.160103 8.1181762,12.30776 C 7.8708688,8.6652426 10.757987,5.413073 14.716227,4.97553 c 3.955592,-0.4372506 7.499471,2.0993244 8.058206,5.703909 l -1.174414,0.129883 0.617968,5.590432 3.478127,-0.38418 -0.617969,-5.590432 -1.116992,0.123047 C 23.37181,6.6092058 19.714727,3.7462161 15.46818,3.8147873 Z"
       style="color:#000000;display:inline;overflow:visible;visibility:visible;fill:#4d4d4d;fill-opacity:1;fill-rule:nonzero;stroke:none;stroke-width:1;marker:none;enable-background:accumulate"
       inkscape:connector-curvature="0" />
    <path
       id="path4437"
       d="m 15.46818,3.8147873 c -0.289862,0.00468 -0.583263,0.023504 -0.877735,0.056055 C 10.05877,4.3717726 6.7449687,8.0523377 6.9259881,12.209323 7.1219539,8.3463007 10.31485,5.043466 14.590445,4.5708422 c 0.294472,-0.032551 0.587873,-0.051372 0.877735,-0.056055 4.246547,-0.068571 7.90363,2.7944185 8.492973,6.7334018 l 1.116992,-0.123047 0.541407,4.898636 0.07656,-0.0082 -0.617969,-5.590433 -1.116992,0.123047 C 23.37181,6.6092058 19.714727,3.7462161 15.46818,3.8147873 Z m 7.159964,6.8810577 -1.028125,0.113477 0.07656,0.691797 1.097852,-0.12168 c -0.03605,-0.232591 -0.08607,-0.460409 -0.146289,-0.683594 z M 9.4525518,12.160103 8.1181762,12.30776 c -0.00168,-0.02432 5.6e-6,-0.04817 -0.0014,-0.07246 -0.013531,0.255111 -0.016282,0.512492 0.0014,0.772461 l 1.3343756,-0.147656 0.5414068,4.900002 0.076562,-0.0082 -0.61797,-5.5918 z m -2.5375012,0.280274 -1.0650393,0.118946 0.076562,0.691797 1.0035163,-0.11211 c -0.017486,-0.234476 -0.019537,-0.467335 -0.015043,-0.698633 z"
       style="color:#000000;display:inline;overflow:visible;visibility:visible;opacity:0.2;fill:#ffffff;fill-opacity:1;fill-rule:nonzero;stroke:none;stroke-width:1;marker:none;enable-background:accumulate"
       inkscape:connector-curvature="0" />
  </g>
  <path
     inkscape:connector-curvature="0"
     style="color:#000000;display:inline;overflow:visible;visibility:visible;fill:#7f5785;fill-opacity:1;fill-rule:nonzero;stroke:none;stroke-width:0.99999994;stroke-linecap:butt;stroke-linejoin:miter;stroke-miterlimit:4;stroke-dasharray:none;stroke-dashoffset:0;stroke-opacity:1;marker:none;enable-background:accumulate"
     d="m 15.086509,5.0009705 c -0.489691,0.018861 -0.919956,0.2790461 -1.25776,0.6645459 -0.337804,0.3854997 -0.604643,0.8989211 -0.829394,1.5015294 -0.449499,1.2052136 -0.725844,2.7767658 -0.878869,4.4024502 -0.153026,1.625684 -0.179205,3.302071 -0.109371,4.703552 0.06983,1.401481 0.206215,2.492239 0.494772,3.101213 0.252378,0.532625 0.545588,1.141413 0.671847,1.69121 0.126258,0.549798 0.09985,0.987963 -0.223949,1.342356 -0.323798,0.354392 -1.038139,0.673135 -2.411359,0.746785 -1.3732203,0.07365 -3.379891,-0.09261 -6.2250033,-0.6221 -0.458255,-0.08528 -0.8405622,-0.0929 -1.1731286,0.01724 -0.3325663,0.110151 -0.5929171,0.355141 -0.751271,0.664547 -0.316708,0.61881 -0.3451778,1.470019 -0.3919109,2.646244 -0.01511,0.380334 0.1245603,0.742903 0.3697764,1.039929 0.2452161,0.297026 0.5885553,0.54051 1.014281,0.753417 0.8514515,0.425815 2.0438416,0.732784 3.5245939,0.951057 2.9615054,0.436545 7.0732685,0.505345 11.7443065,0.234779 l 0.0039,-0.0013 0.0052,0 c 1.719101,-0.141573 4.438521,-0.240881 6.783574,-0.836983 1.172527,-0.298052 2.256731,-0.71792 3.084508,-1.359601 0.827777,-0.641679 1.394651,-1.532555 1.450461,-2.668794 0.05188,-1.056373 -0.0027,-1.763879 -0.214835,-2.27219 -0.212165,-0.508311 -0.666837,-0.779467 -1.134068,-0.789231 -0.934461,-0.01952 -2.035537,0.591784 -3.464701,0.92718 -1.640026,0.384883 -2.797076,0.509365 -3.584487,0.449664 -0.787411,-0.05971 -1.181025,-0.282521 -1.42442,-0.595571 -0.243395,-0.313052 -0.352765,-0.776137 -0.403629,-1.364906 -0.05086,-0.588769 -0.04493,-1.285933 -0.122391,-2.020167 C 19.484659,16.900158 19.204349,13.604988 18.569438,10.662212 18.251983,9.1908231 17.848552,7.8063613 17.307772,6.765134 17.037382,6.24452 16.732893,5.8066709 16.367706,5.4904264 16.00252,5.1741819 15.562899,4.9826212 15.086509,5.0009705 Z"
     id="path4402" />
  <path
     style="color:#000000;display:inline;overflow:visible;visibility:visible;fill:#000000;fill-opacity:1;fill-rule:nonzero;stroke:none;stroke-width:0.99999994;stroke-linecap:butt;stroke-linejoin:miter;stroke-miterlimit:4;stroke-dasharray:none;stroke-dashoffset:0;stroke-opacity:1;marker:none;enable-background:accumulate;opacity:0.3"
     d="M 11.992188 13.820312 C 11.969362 14.682885 11.974142 15.519326 12.011719 16.273438 C 12.081549 17.674919 12.217302 18.766026 12.505859 19.375 C 12.754172 19.899045 13.038505 20.496286 13.167969 21.039062 C 13.269089 20.759513 13.263663 20.440587 13.177734 20.066406 C 13.051475 19.516609 12.758237 18.907625 12.505859 18.375 C 12.217302 17.766026 12.081549 16.674918 12.011719 15.273438 C 11.989343 14.824381 11.993835 14.315105 11.992188 13.820312 z M 29.974609 23.013672 C 29.906676 24.12923 29.348464 25.009087 28.53125 25.642578 C 27.703473 26.284259 26.619793 26.703901 25.447266 27.001953 C 23.102213 27.598055 20.383163 27.696318 18.664062 27.837891 L 18.658203 27.837891 L 18.654297 27.839844 C 13.983259 28.11041 9.8716617 28.042014 6.9101562 27.605469 C 5.4294039 27.387196 4.2362171 27.080112 3.3847656 26.654297 C 2.9590399 26.44139 2.6163098 26.197417 2.3710938 25.900391 C 2.2072004 25.701869 2.0959128 25.473282 2.0410156 25.230469 C 2.0302775 25.445759 2.0115681 25.619329 2.0019531 25.861328 C 1.9868431 26.241662 2.1258777 26.603365 2.3710938 26.900391 C 2.6163098 27.197417 2.9590399 27.44139 3.3847656 27.654297 C 4.2362171 28.080112 5.4294039 28.387196 6.9101562 28.605469 C 9.8716617 29.042014 13.983259 29.11041 18.654297 28.839844 L 18.658203 28.837891 L 18.664062 28.837891 C 20.383163 28.696318 23.102213 28.598055 25.447266 28.001953 C 26.619793 27.703901 27.703473 27.284259 28.53125 26.642578 C 29.359027 26.000899 29.926612 25.108895 29.982422 23.972656 C 30.000961 23.595158 29.985592 23.308899 29.974609 23.013672 z "
     id="path4680" />
  <path
     style="color:#000000;display:inline;overflow:visible;visibility:visible;fill:#ffffff;fill-opacity:1;fill-rule:nonzero;stroke:none;stroke-width:0.99999994;stroke-linecap:butt;stroke-linejoin:miter;stroke-miterlimit:4;stroke-dasharray:none;stroke-dashoffset:0;stroke-opacity:1;marker:none;enable-background:accumulate;opacity:0.2"
     d="M 15.085938 5 C 14.596246 5.018861 14.165929 5.2805158 13.828125 5.6660156 C 13.490321 6.0515153 13.224751 6.5653605 13 7.1679688 C 12.550501 8.3731824 12.274119 9.9446281 12.121094 11.570312 C 12.0171 12.675102 11.988694 13.770884 11.992188 14.820312 C 12.011782 14.079835 12.050408 13.321245 12.121094 12.570312 C 12.274119 10.944627 12.550501 9.3731824 13 8.1679688 C 13.224751 7.5653605 13.490321 7.0515153 13.828125 6.6660156 C 14.165929 6.2805158 14.596246 6.0208141 15.085938 6.0019531 C 15.562328 5.9836038 16.002002 6.1739899 16.367188 6.4902344 C 16.732375 6.8064789 17.038204 7.245011 17.308594 7.765625 C 17.849374 8.8068523 18.252857 10.19072 18.570312 11.662109 C 19.205224 14.604885 19.48429 17.900926 19.632812 19.308594 C 19.710273 20.042828 19.704999 20.739356 19.755859 21.328125 C 19.806723 21.916894 19.916761 22.380307 20.160156 22.693359 C 20.403551 23.006409 20.796573 23.229353 21.583984 23.289062 C 22.371395 23.348764 23.527943 23.224727 25.167969 22.839844 C 26.597133 22.504448 27.698352 21.892589 28.632812 21.912109 C 29.100043 21.921873 29.555413 22.192861 29.767578 22.701172 C 29.903906 23.027836 29.954859 23.48275 29.974609 24.013672 C 29.975487 23.999253 29.98171 23.987155 29.982422 23.972656 C 30.034302 22.916283 29.979713 22.209483 29.767578 21.701172 C 29.555413 21.192861 29.100043 20.921873 28.632812 20.912109 C 27.698352 20.892589 26.597133 21.502495 25.167969 21.837891 C 23.527943 22.222774 22.371395 22.348763 21.583984 22.289062 C 20.796573 22.229353 20.403551 22.006409 20.160156 21.693359 C 19.916761 21.380307 19.806723 20.916894 19.755859 20.328125 C 19.704999 19.739356 19.710273 19.042828 19.632812 18.308594 C 19.48429 16.900926 19.205224 13.604885 18.570312 10.662109 C 18.252857 9.1907205 17.849374 7.8068523 17.308594 6.765625 C 17.038204 6.245011 16.732375 5.8064789 16.367188 5.4902344 C 16.002002 5.1739899 15.562328 4.9816507 15.085938 5 z M 13.167969 22.037109 C 13.120514 22.168499 13.056682 22.294862 12.953125 22.408203 C 12.629327 22.762595 11.916189 23.080647 10.542969 23.154297 C 9.1697485 23.227947 7.1634717 23.062693 4.3183594 22.533203 C 3.8601044 22.447923 3.4770977 22.438688 3.1445312 22.548828 C 2.811965 22.658979 2.550932 22.905438 2.3925781 23.214844 C 2.0758701 23.833654 2.0486862 24.685103 2.0019531 25.861328 C 1.9969421 25.987461 2.013776 26.109986 2.0410156 26.230469 C 2.0824697 25.399352 2.1410303 24.706338 2.3925781 24.214844 C 2.550932 23.905438 2.811965 23.660932 3.1445312 23.550781 C 3.4770977 23.440641 3.8601044 23.447923 4.3183594 23.533203 C 7.1634717 24.062693 9.1697485 24.227947 10.542969 24.154297 C 11.916189 24.080647 12.629327 23.762595 12.953125 23.408203 C 13.276924 23.05381 13.303992 22.616204 13.177734 22.066406 C 13.175571 22.056986 13.170229 22.046564 13.167969 22.037109 z "
     id="path4675" />
  <path
     inkscape:connector-curvature="0"
     d="M 13.987376,15.15024 A 2.9911104,6.0006018 2.5215963 1 1 8.0126746,14.84857 2.9911104,6.0006018 2.5215963 1 1 13.987376,15.15024 Z"
     id="path2892-3"
     style="fill:#ffffff;fill-opacity:1;stroke:none;stroke-width:0.99999976;stroke-miterlimit:4;stroke-dasharray:none;stroke-opacity:1" />
  <path
     inkscape:connector-curvature="0"
     d="m 12.993028,16.04782 a 1.4913024,2.0080428 6.8892366 0 1 -2.986252,-0.09601 1.4913024,2.0080428 6.8892366 0 1 2.986252,0.09601 z"
     id="path7470-3"
     style="display:inline;overflow:visible;visibility:visible;fill:#4d4d4d;fill-opacity:1;fill-rule:nonzero;stroke:none;stroke-width:1;marker:none" />
  <path
     inkscape:connector-curvature="0"
     d="m 22.93707,14.682978 a 6.0260012,3.4507342 83.211508 1 1 -6.873974,0.633527 6.0260012,3.4507342 83.211508 1 1 6.873974,-0.633527 z"
     id="path8367-1"
     style="fill:#ffffff;fill-opacity:1;stroke:none;stroke-width:0.99999994;stroke-miterlimit:4;stroke-dasharray:none;stroke-opacity:1" />
  <path
     inkscape:connector-curvature="0"
     d="m 20.947159,16.136879 a 1.4387671,2.0444924 16.980205 0 1 -2.894868,-0.270974 1.4387671,2.0444924 16.980205 1 1 2.894868,0.270974 z"
     id="path8369-4"
     style="display:inline;overflow:visible;visibility:visible;fill:#4d4d4d;fill-opacity:1;fill-rule:nonzero;stroke:none;stroke-width:1;marker:none" />
</svg>
